release/img/icons/vk.svg

<svg width="22" height="22" viewBox="0 0 22 22" fill="none" xmlns="http://www.w3.org/2000/svg">
<path d="M19.567 6.67812C19.6975 6.2875 19.567 6 18.9391 6H16.8616C16.3326 6 16.0892 6.24687 15.9587 6.52187C15.9587 6.52187 14.9005 8.80625 13.405 10.2875C12.9218 10.7156 12.6996 10.8531 12.4351 10.8531C12.3046 10.8531 12.1035 10.7156 12.1035 10.325V6.67812C12.1035 6.20937 11.9554 6 11.518 6H8.25184C7.92029 6 7.72277 6.21875 7.72277 6.42188C7.72277 6.86562 8.47053 6.96875 8.54813 8.21875V10.9313C8.54813 11.525 8.4282 11.6344 8.16366 11.6344C7.45823 11.6344 5.74403 9.34063 4.72821 6.71563C4.52363 6.20625 4.32259 6 3.78998 6H1.71249C1.11992 6 1 6.24687 1 6.52187C1 7.00937 1.70543 9.43125 4.28379 12.6313C6.00151 14.8156 8.42115 16 10.6221 16C11.9448 16 12.107 15.7375 12.107 15.2844C12.107 13.1969 11.9871 13 12.6502 13C12.9571 13 13.4862 13.1375 14.7207 14.1906C16.1315 15.4406 16.3643 16 17.1544 16H19.2319C19.8245 16 20.1243 15.7375 19.9514 15.2188C19.5564 14.1281 16.8863 11.8844 16.7664 11.7344C16.4595 11.3844 16.5477 11.2281 16.7664 10.9156C16.7699 10.9125 19.306 7.75 19.567 6.67812V6.67812Z" fill="white"/>
</svg>

<svg width="22" height="22" fill="none" xmlns="http://www.w3.org/2000/svg"><path d="M19.567 6.678c.13-.39 0-.678-.628-.678h-2.077c-.53 0-.773.247-.903.522 0 0-1.059 2.284-2.554 3.765-.483.429-.705.566-.97.566-.13 0-.332-.137-.332-.528V6.678c0-.469-.148-.678-.585-.678H8.252c-.332 0-.53.219-.53.422 0 .444.749.547.826 1.797v2.712c0 .594-.12.703-.384.703-.706 0-2.42-2.293-3.436-4.918C4.524 6.206 4.323 6 3.79 6H1.712C1.12 6 1 6.247 1 6.522c0 .487.705 2.91 3.284 6.11C6.002 14.815 8.42 16 10.622 16c1.323 0 1.485-.262 1.485-.716 0-2.087-.12-2.284.543-2.284.307 0 .836.137 2.07 1.19 1.411 1.25 1.644 1.81 2.434 1.81h2.078c.593 0 .892-.262.72-.781-.396-1.09-3.066-3.335-3.186-3.485-.306-.35-.218-.506 0-.818.004-.004 2.54-3.166 2.801-4.238z" fill="#fff"/></svg>
